X:1
T:Seelenbräutigam, 55.88.55
T:Seelenbräutigam, 55.88.55
T:Adam Drese, 1698
T:Public Domain Courtesy of the Cyber Hymnal™
C:Adam Drese, 1698
Z:Public Domain
Z:Courtesy of the Cyber Hymnal™
%%score ( 1 2 ) ( 3 4 )
L:1/8
Q:1/4=112
M:4/4
K:G
V:1 treble 
V:2 treble 
V:3 bass 
V:4 bass 
V:1
 [DG]2 [DG]2 | [DF]2 G2 [DA]4 | [B,G]2 [DA]2 [DB]2 [DA]2 | [B,G]4 [DB]2 [Gc]2 | %4
 [Fd]2 [Gc]2 [GB]2 [FA]2 | B4 [FA]4 | [EG]2 [FA]2 [GB]2 [FA]2 | [EG]2 [^DF]2 [EG]4 | %8
 [^DF]4 [EG]2 [DG]2 | [DF]2 G2 [DA]4 | [B,G]2 [DA]2 [DB]2 [DA]2 | [B,G]4 |] %12
V:2
 x4 | x2 (B,^C) x4 | x8 | x8 | x8 | (D2 E2) x4 | x8 | x8 | x8 | x2 (B,^C) x4 | x8 | x4 |] %12
V:3
 [G,,B,]2 [B,,B,]2 | [D,A,]2 [E,G,]2 [D,F,]4 | [E,G,]2 [D,F,]2 G,2 [D,F,]2 | %3
 [G,,G,]4 [D,G,]2 [E,G,]2 | [D,A,]2 ([E,G,][F,A,]) [G,B,]2 [D,D]2 | (B,2 ^C2) [D,D]4 | %6
 [E,B,]2 [D,D]2 [G,D]2 [D,D]2 | [E,B,]2 [B,,B,]2 B,4 | [F,B,]4 [E,B,]2 [B,,B,]2 | %9
 [D,A,]2 [E,G,]2 [D,F,]4 | [E,G,]2 [D,F,]2 G,2 [D,F,]2 | [G,,G,]4 |] %12
V:4
 x4 | x8 | x4 (B,,C,) x2 | x8 | x8 | G,4 x4 | x8 | x4 (E,2 G,2) | x8 | x8 | x4 (B,,C,) x2 | x4 |] %12

